!!!!SEGMENT: pl-kk--kk-i-382--032_anonim--pater-noster.krn
!!!cenid: 18xx:1519
!!!COM: Anonim
!!!COM-rismid: pe30004985
!!!CDT:
!!!CNT:
!!!OTL: Pater noster
!!!PDT:
!!!AGN: Sacred
!!!SMS-siglum: PL-Kk
!!!SMS-shelfmark: Kk.I.382
!!!SMS-shelfwork: 017 W
!!!SMS-variant:
!!!SMS-altvar:
!!!NIFC-rismid:
!!!URL-scan: http://repozytorium.nifc.pl/skany/pl-kk-nut--i-382
!!!ONB-nifc: UWAGA: obsada: S (T 1), A (B 1), T 2, B 2; S (T 1): skan 0055, A (B 1): 0211-0212 T 2: skan 0104-0105, B 2: skan 0251-0252
**kern	**text	**kern	**text	**kern	**text	**kern	**text
*part4	*part4	*part2	*part2	*part3	*part3	*part1	*part1
*staff4	*staff4	*staff2	*staff2	*staff3	*staff3	*staff1	*staff1
*I"Basso II	*	*I"Tenore I	*	*I"Alto vel Basso I	*	*I"Soprano vel Tenore I.	*
*I'B 2	*	*I'T 2	*	*I'A (B 1)	*	*I'S (T 1)	*
*clefF4	*	*clefG2	*	*clefF4	*	*clefG2	*
*	*	*Trd0c0	*	*	*	*Trd0c0	*
*k[b-e-]	*	*k[b-e-]	*	*k[b-e-]	*	*k[b-e-]	*
*B-:	*	*B-:	*	*B-:	*	*	*
*M4/4	*	*M4/4	*	*M4/4	*	*M4/4	*
*met(c)	*	*met(c)	*	*met(c)	*	*met(c)	*
!LO:TX:i:a:t=Pater noster	!	!LO:TX:i:a:t=Pater noster	!	!	!	!LO:TX:a:t=P:problem:napis "Pater noster" na pięciolinii przed kluczem	!
!LO:TX:t=P:problem:all\right:global	!	!LO:TX:i:a:t=Grave	!	!	!	!LO:TX:t=P:problem:all\right:global	!
!LO:TX:t=P:problem:all/left:global	!	!LO:TX:t=P:problem:all/left:global	!	!LO:TX:t=P:problem:all\right:global	!	!LO:TX:i:a:t=Grave	!
!LO:TX:a:i:t=Grave	!	!LO:TX:t=P:problem:all\right:global	!	!LO:TX:a:i:t=Grave	!	!LO:TX:a:i:t=Pater noster	!
8BB-/	Pa-	8b-\	Pa-	8F\	Pa-	8dd\	Pa-
8BB-/	-ter	8b-\	-ter	8F\	-ter	8dd\	-ter
=1	=1	=1	=1	=1	=1	=1	=1
4BB-/	no-	4b-\	no-	4F\	no-	4dd\	no-
4BB-/	-ster	4b-\	-ster	4F\	-ster	4dd\	-ster
4BB-/	qui	4b-\	qui	4F\	qui	4dd\	qui
8BB-/	es	8f/	es	8D\	es	8b-/	es
8BB-/	in	8f/	in	8D\	in	8b-/	in
=2	=2	=2	=2	=2	=2	=2	=2
*	*	*2\right	*	*2\right	*	*2\right	*
!LO:TX:t=P:problem:2/left:global	!	!	!	!	!	!	!
2BB-/	coe-	2b-\	coe-	2G\	coe-	2ee-\	coe-
4BB-/	-lis,	4b-\	-lis,	4F\	-lis	4dd\	-lis.
4r	.	4r	.	4r	.	4r	.
!LO:LB:g=original	!	!LO:LB:g=original	!	!LO:LB:g=original	!	!LO:LB:g=original	!
=3	=3	=3	=3	=3	=3	=3	=3
8FF/	sanc-	8a/	sanc-	8E-\	sanc-	8cc\	san-
16FF/	-ti-	16a/	-ti-	16E-\	-ti-	16cc\	-cti-
16FF/	-fi-	16a/	-fi-	16E-\	-fi-	16cc\	-fi-
8FF/	-ce-	8a/	-ce-	8E-\	-ce-	8cc\	-ce-
8FF/	-tur	8a/	-tur	8E-\	-tur	8cc\	-tur
4FF/	no-	4a/	no-	4F\	no-	4dd\	no-
4AA/	-men	4f/	-men	4E-\	-men	4cc\	-men
=4	=4	=4	=4	=4	=4	=4	=4
!	!	!LO:TX:t=P:problem:2/left:global	!	!	!	!	!
2BB-/	tu-	2f/	tu-	2D\	tu-	2b-\	tu-
4BB-/	-um:	4f/	-um:	4D\	-um	4f/	-um:
4r	.	4r	.	4r	.	4r	.
!	!	!	!	!LO:LB:g=original	!	!	!
=5	=5	=5	=5	=5	=5	=5	=5
8BB-/	ad-	8b-\	ad-	8F\	ad-	8dd\	ad-
8BB-/	-ve-	8b-\	-ve-	8F\	-ve-	8dd\	-ve-
!LO:LB:g=original	!	!	!	!	!	!	!
8BB-/	-ni-	8b-\	-ni-	8F\	-ni-	8dd\	-ni-
8BB-/	-at	8b-\	-at	8F\	-at	8dd\	-at
!	!	!LO:LB:g=original	!	!	!	!	!
4BB-/	re-	4a/	re-	4F\	re-	4dd\	re-
4BBn/	-gnum	4a-X/	-gnum	4F\	-gnum	4dd\	-gn(um)
=6	=6	=6	=6	=6	=6	=6	=6
2C/	tu-	2a/	tu-	2F\	tu-	2dd\	tu-
2C/	-um:	2a/	-um:	2F\	-um	2cc\	-um:
!	!	!	!	!	!	!LO:LB:g=original	!
=7	=7	=7	=7	=7	=7	=7	=7
8C/	fi-	8b-\	fi-	8En\	fi-	8cc\	fi-
8C/	-at	8b-\	-at	8E\	-at	8cc\	-at
8r	.	8r	.	8r	.	8r	.
8C/	vo-	8b-\	vo-	8E\	vo-	8cc\	vo-
!	!	!	!	!LO:LB:g=original	!	!	!
8C/	-lun-	8b-\	-lun-	8E\	-lun-	8cc\	-lun-
8C/	-tas	8b-\	-tas	8E\	-tas	8cc\	-tas
!LO:LB:g=original	!	!	!	!	!	!	!
8C/	tu-	8b-\	tu-	8E\	tu-	8cc\	tu-
8C/	-a,	8b-\	-a,	8E\	-a[[s]]	8cc\	-a,
!	!	!LO:LB:g=original	!	!	!	!	!
=8	=8	=8	=8	=8	=8	=8	=8
4C/	si-	4b-\	si-	4En\	si-	4dd\	si-
8C/	-cut	8b-\	-cut	8E\	-cut	8dd\	-cut
8C/	in	8b-\	in	8E\	in	8dd\	in
4C/	coe-	4b-\	coe-	4G\	coe-	4een\	coe-
4C/	-lo	4b-\	-lo	4G\	-lo	4ee\	-lo
=9	=9	=9	=9	=9	=9	=9	=9
4C/	et	4b-\	et	4G\	et	4een\	et
4C/	in	4b-\	in	4G\	in	4ee\	in
4FF/	ter-	4a/	ter-	4F\	ter-	4ff\	ter-
4FF/	-ra:	4a/	-ra,	4F\	-ra	4ee-X\	-ra:
!LO:LB:g=original	!	!	!	!LO:PB:g=original	!	!LO:LB:g=original	!
=10	=10	=10	=10	=10	=10	=10	=10
4GG/	pa-	4bn\	pa-	4F\	pa-	4dd\	pa-
4GG/	-nem	4b\	-nem	4F\	-nem	4dd\	-nem
4GG/	no-	4b\	no-	4G\	no-	4ee-\	no-
4GG/	-strum	4b\	-strum	4F\	-strum	4dd\	-strum
!	!	!LO:LB:g=original	!	!	!	!	!
=11	=11	=11	=11	=11	=11	=11	=11
4C/	quo-	4cc\	quo-	4En\	quo-	4cc\	quo-
8C/	-ti-	8g/	-ti-	8E\	-ti-	8g/	-ti-
8C/	-di-	8g/	-di-	8E\	-di-	8g/	-di-
4C/	-a-	4g/	-a-	4E\	-a-	4g/	-a-
4C/	-num	4g/	-num	4E\	-num	4g/	-num
=12	=12	=12	=12	=12	=12	=12	=12
2FF/	da	2a/	da	2E-X\	da	2cc\	da
4FF/	no-	4a/	no-	4F\	no-	4dd\	no-
4AA/	-bis	4f/	-bis	4E-\	-bis	4cc\	-bis
!LO:LB:g=original	!	!	!	!LO:LB:g=original	!	!	!
=13	=13	=13	=13	=13	=13	=13	=13
2BB-/	ho-	2f/	ho-	2D\	ho-	2b-\	ho-
8BB-/	-di-	8f/	-di-	8D\	-di-	8f/	-di-
8BB-/	-e;	8f/	-e;	8D\	-e	8f/	-e;
!LO:TX:a:t=P:problem:znak "+" nad kreską taktową	!	!LO:TX:a:t=P:problem:znak "+" nad kreską taktową	!	!LO:TX:a:t=P:problem:znak "+" nad kreską taktową	!	!LO:TX:a:t=P:problem:znak "+" nad kreską taktową	!
4r	.	4r	.	4r	.	4r	.
!	!	!LO:LB:g=original	!	!	!	!LO:LB:g=original	!
=14	=14	=14	=14	=14	=14	=14	=14
4BB-/	pa-	4f/	pa-	4D\	pa-	4b-\	pa-
4BB-/	-nem	4f/	-nem	4D\	-nem	4b-\	-nem
4BB-/	no-	4a/	no-	4E-\	no-	4cc\	no-
4BB-/	-strum	4a-X/	-strum	4F\	-strum	4dd\	-strum
=15	=15	=15	=15	=15	=15	=15	=15
!	!	!LO:TX:a:t=P:problem:w źródle bemol dopisany ołówkiem	!	!	!	!	!
!	!	!LO:SIC:v:s=8a-	!	!	!	!	!
4BBn/	quo-	4a/	quo-	4D\	quo-	4ff\	quo-
!	!	!LO:SIC:v:s=8a-	!	!	!	!	!
8BB/	-ti-	8a/	-ti-	8D\	-ti-	8ff\	-ti-
!	!	!LO:SIC:v:s=8a-	!	!	!	!	!
8BB/	-di-	8a/	-di-	8D\	-di-	8ff\	-di-
!	!	!	!	!LO:LB:g=original	!	!	!
4C/	-a-	4g/	-a-	4E-\	-a-	4ee-\	-a-
4EE-/	-num	4g/	-num	4E-\	-num	(>8dd\L	-num
.	.	.	.	.	.	8cc\J)	.
!LO:LB:g=original	!	!	!	!	!	!	!
=16	=16	=16	=16	=16	=16	=16	=16
2FF/	da	2f/	da	2E-\	da	2cc\	da
4FF/	no-	4f/	no-	4E-\	no-	4g/	no-
4FF/	-bis	4f/	-bis	4E-\	-bis	4a/	-bis
!	!	!LO:LB:g=original	!	!	!	!	!
=17	=17	=17	=17	=17	=17	=17	=17
8BB-/	ho-	8f/	ho-	8D\	ho-	8b-/	ho-
8BB-/	-di-	8f/	-di-	8D\	-di-	8b-/	-di-
8BB-/	-e;	8f/	-e;	8D\	-e	8b-/	-e;
8r	.	8r	.	8r	.	8r	.
2r	.	2r	.	2r	.	2r	.
!	!	!	!	!	!	!LO:LB:g=original	!
=18	=18	=18	=18	=18	=18	=18	=18
4F\	et	4cc\	et	4A\	et	4cc\	et
4F\	di-	4cc\	di-	4A\	di-	4cc\	di-
!	!	!	!	!LO:LB:g=original	!	!	!
4F\	-mit-	4bn\	-mit-	4A-X\	-mit-	4dd\	-mit-
4F\	-te	4cc\	-te	4An\	-te	4cc\	-te
!LO:LB:g=original	!	!	!	!	!	!	!
=19	=19	=19	=19	=19	=19	=19	=19
*2\right	*	*	*	*	*	*	*
2D\	no-	2a/	no-	2F\	no-	2ff\	no-
4D\	-bis	4a/	-bis	4F\	-bis	4a/	-bis
4r	.	4r	.	4r	.	4r	.
!	!	!LO:LB:g=original	!	!	!	!	!
=20	=20	=20	=20	=20	=20	=20	=20
(>4BB-/	de-	(>4b-\	de-	2F\	de-	2dd\	de-
4BBn/	.	4a-X/	.	.	.	.	.
4C/)	-bi-	4g/)	-bi-	4En\	-bi-	4cc\	-bi-
4C/	-ta	4g/	-ta	4E\	-ta	4b-\	-ta
=21	=21	=21	=21	=21	=21	=21	=21
2FF/	no-	2b-\	no-	2F\	no-	2dd\	no-
4FF/	-stra,	4a/	-stra	4F\	-stra	4cc\	-stra,
4r	.	4r	.	4r	.	4r	.
!LO:LB:g=original	!	!	!	!LO:LB:g=original	!	!	!
=22	=22	=22	=22	=22	=22	=22	=22
4D\	si-	4a/	si-	4F\	si-	4ff\	si-
4D\	-cut	4a/	-cut	4F\	-cut	4ff\	-cut
4C/	et	4a/	et	4F\	et	4ee-\	et
!	!	!LO:TX:b:i:t=V. S.	!	!	!	!	!
!	!	!LO:TX:a:t=P:problem:napis na pięciolinii za kreską	!	!	!	!	!
4C/	nos	4a/	nos	4F\	nos	4a/	nos
!	!	!LO:PB:g=original	!	!	!	!LO:LB:g=original	!
=23	=23	=23	=23	=23	=23	=23	=23
4BB-/	di-	4b-\	di-	4F\	di-	4dd\	di-
4D\	-mit-	4b-\	-mit-	4F\	-mit-	4dd\	-mit-
4F\	-ti-	4a/	-ti-	4F\	-ti-	4cc\	-ti-
4F\	-mus	4a/	-mus	4F\	-mus	4cc\	-mus
=24	=24	=24	=24	=24	=24	=24	=24
4C/	de-	4b-\	de-	4En\	de-	4cc\	de-
4C/	-bi-	4b-\	-bi-	4E\	-bi-	4cc#X\	-bi-
!LO:LB:g=original	!	!	!	!	!	!	!
4C/	-to-	4b-\	-to-	4F\	-to-	4dd\	-to-
!	!	!	!	!LO:LB:g=original	!	!	!
8C/	-ri-	8b-\	-ri-	8F\	-ri-	8ccn\	-ri-
8C/	-bus	8b-\	-bus	8F\	-bus	8cc\	-bus
=25	=25	=25	=25	=25	=25	=25	=25
2FF/	nos-	2a/	no-	2F\	no-	2cc\	no-
2FF/	-tris;	2a/	-stris	2F\	-stris	2cc\	-stris;
!	!	!LO:LB:g=original	!	!	!	!	!
=26	=26	=26	=26	=26	=26	=26	=26
4BB-/	et	4b-X\	et	4F\	et	4dd-X\	et
4BB-/	ne	4b-\	ne	4F\	ne	4dd-\	ne
4BB-/	nos	4b-\	nos	4F\	nos	4dd-\	nos
4BB-/	in-	4b-\	in-	4F\	in-	4dd-\	in-
!	!	!	!	!	!	!LO:PB:g=original	!
=27	=27	=27	=27	=27	=27	=27	=27
!LO:SIC:v:s=2AA-	!	!	!	!	!	!	!
2AA/	-du-	2cc\	-du-	2A-X\	-du-	2ee-\	-du-
!LO:SIC:v:s=2AA-	!	!	!	!	!	!	!
!LO:TX:i:b:t=V. S.	!	!	!	!	!	!	!
2AA/	-cas	2cc\	-cas	2A-\	-cas	2ee-\	-cas
!LO:PB:g=original	!	!	!	!LO:LB:g=original	!	!	!
=28	=28	=28	=28	=28	=28	=28	=28
!LO:TX:a:t=a.	!	!	!	!	!	!	!
4D-X\	in	4dd-X\	in	4A-X\	in	4ff\	in
4D-\	ten-	4dd-\	ten-	4A-\	ten-	4ff\	ten-
4D-\	-ta-	4dd-\	-ta-	4A-\	-ta-	4ff\	-ta-
!LO:TX:a:t=P:problem:znak "+" nad kreską taktową	!	!	!	!LO:TX:a:t=P:problem:znak "+" nad kreską taktową	!	!	!
4D-\	-ti-	4dd-\	-ti-	4A-\	-ti-	4ff\	-ti-
=29	=29	=29	=29	=29	=29	=29	=29
2F\	-o-	2cc\	-o-	2A\	-o-	2ff\	-o-
!	!	!LO:TX:a:t=P:problem:znak "+" nad kreską taktową	!	!	!	!LO:TX:a:t=P:problem:znak "+" nad kreską taktową	!
2F\	-nem	2cc\	-nem	2A\	-nem	2ee-\	-nem
!	!	!LO:LB:g=original	!	!	!	!	!
=30	=30	=30	=30	=30	=30	=30	=30
!	!	!	!	!	!	!LO:TX:a:t=P:problem:w źródle kasownik dopisany ołówkiem	!
4BB-/	sed	4b-\	sed	4F\	sed	4dd\	sed
4BB-/	li-	4b-\	li-	4F\	li-	4dd\	li-
4BB-/	-be-	4b-\	-be-	4F\	-be-	4dd\	-be-
4BB-/	-ra	4f/	-ra	4D\	-ra	4b-\	-ra
!LO:LB:g=original	!	!	!	!LO:LB:g=original	!	!	!
=31	=31	=31	=31	=31	=31	=31	=31
4BB-/	nos	4b-\	nos	(>8G\L	nos	4ee-\	nos
.	.	.	.	8G-X\J	.	.	.
4BB-/	a	4b-\	a	4F\	a	4dd\	a
(>8GG/L	ma-	4b-\	ma-	()>4En\	ma-	4cc\	ma-
8GG-X/J	.	.	.	.	.	.	.
4FF/)	.	(<8b-/L	.	8F\L	.	(>8dd\L	.
.	.	8a/J	.	8E-X\J)	.	8cc\J)	.
!	!	!	!	!	!	!LO:LB:g=original	!
=32	=32	=32	=32	=32	=32	=32	=32
4BB-/	-lo.	4b-\)	-lo.	4D\	-lo.	4b-\	-lo.
4r	.	4r	.	4r	.	4r	.
2E-\	A-	2b-\	A-	2G\	A-	2ee-\	A-
!	!	!LO:LB:g=original	!	!	!	!	!
=33	=33	=33	=33	=33	=33	=33	=33
4BB-/	-men	4b-\	-men.	4F\	-men.	4dd\	-men
4r	.	4r	.	4r	.	4r	.
2FF/	A-	2f/	A-	2E-\	A-	2a/	A-
=34	=34	=34	=34	=34	=34	=34	=34
2BB-/	-men	2f/	-men.	2D\	-men	2b-/	-men
!	!	!	!	!	!	!LO:TX:a:t=P:problem:napis "Kraków 14.VII.1885" na pięciolinii za kreską.	!
!	!	!	!	!	!	!LO:TX:a:t=P:problem:podwójna kreska (druga kreska nie jest pogrubiona)	!
!	!	!LO:TX:a:t=P:problem:napis na pięciolinii za kreską	!	!	!	!LO:TX:b:i:t=Kasper Molęcki	!
!LO:TX:b:i:t=Kraków 14.VII.1885. Molęcki	!	!LO:TX:b:i:t=Kraków 14 VII 1885	!	!LO:TX:b:i:t=Kraków 14.VII.1885. Molęcki	!	!LO:TX:b:i:t=Kraków 14.VII.1885	!
2r	.	2r	.	2r	.	2r	.
==	==	==	==	==	==	==	==
*-	*-	*-	*-	*-	*-	*-	*-
!!!system-decoration: [(s1,s2,s3,s4)]
!!!RDF**kern: > = above
!!!RDF**kern: < = below
!!!EED:Mateusz Mrugas
!!!EST:2021-02-09
!!!ENC: Andrzej Borzym
!!!END: 2021-01-30
